X:1
T:Title
%%score 1 2 3
L:1/8
M:3/2
K:C
V:1 treble-8 nm="Part_1"
V:2 treble-8 nm="Part_2"
V:3 bass nm="Part_3"
V:1
 d8 B4 | c4 d4 e4 | f2 e2 d2 c4 B2 | d4 A2 d4 c2 | f4 e2 e2 d2 c2 | e4 e4 f4- | f2 e2 (3c4 d4 e4 | %7
 f8 e2 d2 | e4 f4 e4 | f4 e4 d4 | c2 f2 e2 d2 c2 B2 | d4 _B2 d4 c2 | A4 z2 A2 c2 c2 | %13
 _B4 A2 F2 G4 | A4 _B6 A2 | G4 z2 g2 f2 e2 | g4 e2 g4 e2 | B2 A2 e2 e2 d2 c2 | e4 f2 g4 f2 | %19
 d4 e4 f4 | e8 f2 e2 | c4 A4 z2 B2 | c2 d4 e2 d2 c2 | e8 c4 | f4 e6 d2 | d4 c4 d2 B2 | d12 |] %27
V:2
 A8 G4- | G4 A4 c4 | c2 B4 A2 G2 F2 | A4 z4 z4 | A8 G4 | A4 c4 c4 | B4 A4 z4 | d8 c4 | B4 c4 B4 | %9
 A4 B4 A4 | G2 _B2 A2 A2 G2 F2 | A4 z4 z4 | d4 d4 e4 | d8 c4 | d4 _e4 z4 | d8 c4- | c2 d2 e8 | %17
 d2 c4 B2 A2 G2 | B4 z4 z4 | B4 c4 d4 | c4 B4 A2 G2 | A4 d6 c2 | c4 B4 z4 | G8 A4 | c4 B6 A2 | %25
 A4 G4 A2 F2 | A12 |] %27
V:3
 D,8 E,4- | E,4 D,4 A,,4 | A,2 G,2 F,4 E,4 | D,8 A,,4 | D,4 C,4 B,,4 | A,,8 A,4 | G,4 A,8 | %7
 D,4 F,4 A,4 | G,4 A,4 G,4 | D,4 G,4 F,4 | E,2 D,2 F,2 G,2 E,4 | D,12 | F,8 C,4 | G,4 F,4 E,4 | %14
 D,4 G,8 | _B,4 G,4 A,4 | F,4 C,8 | G,2 A,2 E,2 G,2 F,4 | E,12 | G,4 E,4 D,4 | A,4 G,4 D,2 E,2 | %21
 F,8 D,4 | A,4 G,4 F,4 | E,8 A,,4 | A,4 G,8 | F,4 E,8 | D,12 |] %27

